X: 20623
T: The BANKS O' NITH
O: Scottish air.
%R: march
B: W. Hamilton "Universal Tune-Book" Vol. 2 Glasgow 1846 p.62 #3
S: http://s3-eu-west-1.amazonaws.com/itma.dl.printmaterial/book_pdfs/hamiltonvol2web.pdf
Z: 2016 John Chambers <jc:trillian.mit.edu>
M: C
L: 1/8
K: G
% - - - - - - - - - - - - - - - - - - - - - - - - -
(GA) |\
B2D2 B3A | G2(EF) D2(Bc) | d3e (dedB) | (cB)(AG) A2GA |\
B2D2 B3A | G2EF D2(dc) | (Bd)(AB) (GB)(EG) | (DG)(FA) G2 |]
(Bc) |\
d2B2 g3a | (ga/b/) (GA) G2(Bc) | (dB)(ba) (ge)(dB) | (AGAB) D2GA |\
B2D2 B2(AG) | c2E2 c2(BA) | (Bd)(AB) (GB)(EG) | (DG)(FA) G2 |]
% - - - - - - - - - - - - - - - - - - - - - - - - -

%%sep 1 1 500
%%sep 1 1 500

